X: 35664
T: Sailor's Cravat, The
R: reel
M: 4/4
K: Dmajor
d2fe dcBd|ABFB ADFA|d2fe dcBd|AFDE FEE2|
d2 (3gfe dcBd|ABFB ADFA|d2fe dcBd|AFGE FDD2||
AddA BAFA|defd Bee2|dAAd BAdB|AFGE FDD2|
AddA BAFA|defd Bee2|defd BcdB|AFGE FDD2||

